src/pos-icons/format-line-spacing.svg

<svg height="24" viewBox="0 0 24 24" width="24" xmlns="http://www.w3.org/2000/svg"><path d="m10 13h12v-2h-12m0 8h12v-2h-12m0-10h12v-2h-12m-4 2h2.5l-3.5-3.5-3.5 3.5h2.5v10h-2.5l3.5 3.5 3.5-3.5h-2.5z"/></svg>

<?xml version="1.0" encoding="UTF-8"?><!DOCTYPE svg PUBLIC "-//W3C//DTD SVG 1.1//EN" "http://www.w3.org/Graphics/SVG/1.1/DTD/svg11.dtd"><svg xmlns="http://www.w3.org/2000/svg" xmlns:xlink="http://www.w3.org/1999/xlink" version="1.1" id="mdi-format-line-spacing" width="24" height="24" viewBox="0 0 24 24"><path d="M10,13H22V11H10M10,19H22V17H10M10,7H22V5H10M6,7H8.5L5,3.5L1.5,7H4V17H1.5L5,20.5L8.5,17H6V7Z" /></svg>
